X:1
T:Fort Myers, 76.76
T:Fort Myers, 76.76
T:Zimri Mullen Parvin, 1875
T:Public Domain Courtesy of the Cyber Hymnal™
C:Zimri Mullen Parvin, 1875
Z:Public Domain
Z:Courtesy of the Cyber Hymnal™
%%score ( 1 2 ) ( 3 4 )
L:1/8
Q:1/4=92
M:3/4
K:Ab
V:1 treble 
V:2 treble 
V:3 bass 
V:4 bass 
V:1
 [Ec][=D=B] [Ec] | [CA]3 [FA] [=EG][FA] | [DF]3 [DF] [DF][DF] | ([CE]2 [Ec]2) [EA]2 | %4
 [EB]3 [Ec] [=D=B][Ec] | [CA]3 [FA] [=EG][FA] | [DF]3 [Fd] [Ac][FB] | (A2 B2) [EG]2 | [EA]3 |] %9
V:2
 x3 | x6 | x6 | x6 | x6 | x6 | x6 | E4 x2 | x3 |] %9
V:3
 [A,,A,][A,,A,] [A,,A,] | A,3 [D,D] [D,D][D,D] | [D,A,]3 [D,A,] [D,A,][D,A,] | [A,,A,]4 [C,A,]2 | %4
 [E,G,]3 [A,,A,] [A,,A,][A,,A,] | A,3 [D,D] [D,D][D,D] | [D,A,]3 [B,,B,] [C,A,][D,D] | %7
 (C2 D2) [E,B,]2 | [A,,C]3 |] %9
V:4
 x3 | A,3 x3 | x6 | x6 | x6 | A,3 x3 | x6 | E,4 x2 | x3 |] %9

